X: 1
T:India
M:6/8
L:1/8
Q:80
C:Arch Ott
S:Waltz
K:HP
{g}e|:
{g}c{d}A3/2B/2{gcd}cd{e}B|
{g}ea3/2f/2{gef}e3|  !
{gde}d{e}B3/2c/2{gde}dcB|
{g}c{d}Af{gef}e2d|
{g}c{d}A3/2B/2{gcd}cd{e}B|  !
{g}ea3/2f/2{gef}e3/2c/2{d}A|
{gBd}BG3/2B/2{gde}dcB|
A3{GAG}A2e:| [|  !
{g}ea3/2f/2{gef}e2{g}d|
{gcd}cA3/2B/2{gcd}c3|
{gBd}BG3/2B/2{gef}edB|  !
Acf{gef}e2d|
{g}ea3/2f/2{gef}e2{g}d|
{gcd}cA3/2B/2{gcd}c3/2B/2A|  !
{gBd}BG3/2B/2{gde}dcB|
A3{GAG}A2d|] [|
{g}ea3/2f/2{gef}e2{g}d|  !
{gcd}cA3/2B/2{gcd}c3|
{gBd}BG3/2B/2{gef}edB|
Acf{gef}e2d|  !
{g}ea3/2f/2{gef}e{g}c3/2d/2|
{gef}eA3/2B/2{gcd}c3/2B/2A|
{gBd}BG3/2B/2{gde}dcB|  !
A3{GAG}A3|]
